images/vk-icon-grey.svg

<svg width="24" height="25" viewBox="0 0 24 25" fill="none" xmlns="http://www.w3.org/2000/svg">
<path fill-rule="evenodd" clip-rule="evenodd" d="M8.32 0.630493C15.04 0.630493 8.96 0.630493 15.68 0.630493C22.4 0.630493 24 2.23675 24 8.98302C24 15.7293 24 9.62553 24 16.3718C24 23.1181 22.4 24.7243 15.68 24.7243C8.96 24.7243 15.04 24.7243 8.32 24.7243C1.6 24.7243 0 23.1181 0 16.3718C0 9.62553 0 12.7502 0 8.98302C0 2.23675 1.6 0.630493 8.32 0.630493Z" fill="#C4C4C4"/>
<path fill-rule="evenodd" clip-rule="evenodd" d="M19.6542 8.93109C19.7654 8.55883 19.6542 8.28529 19.125 8.28529H17.375C16.9301 8.28529 16.7249 8.52159 16.6137 8.78215C16.6137 8.78215 15.7237 10.9598 14.463 12.3744C14.0552 12.7838 13.8697 12.9141 13.6473 12.9141C13.536 12.9141 13.375 12.7838 13.375 12.4116V8.93109C13.375 8.48438 13.2459 8.28529 12.875 8.28529H10.125C9.84696 8.28529 9.67973 8.49262 9.67973 8.68911C9.67973 9.11258 10.3101 9.21024 10.375 10.4015V12.9886C10.375 13.5558 10.273 13.6587 10.0505 13.6587C9.45725 13.6587 8.01415 11.4713 7.15825 8.9683C6.99052 8.48181 6.82228 8.28529 6.37503 8.28529H4.62503C4.12503 8.28529 4.02502 8.52159 4.02502 8.78215C4.02502 9.24748 4.61831 11.5554 6.78748 14.6079C8.23357 16.6924 10.271 17.8224 12.125 17.8224C13.2374 17.8224 13.375 17.5715 13.375 17.1392V15.5636C13.375 15.0617 13.4804 14.9615 13.8327 14.9615C14.0922 14.9615 14.5372 15.0918 15.5754 16.0969C16.762 17.2881 16.9576 17.8224 17.625 17.8224H19.375C19.875 17.8224 20.125 17.5715 19.9808 17.0762C19.823 16.5825 19.2565 15.8663 18.5048 15.0173C18.0969 14.5334 17.4851 14.0123 17.2996 13.7517C17.0401 13.4167 17.1142 13.2678 17.2996 12.97C17.2996 12.97 19.4318 9.95475 19.6542 8.93109Z" fill="white"/>
</svg>

<svg width="24" height="25" fill="none" xmlns="http://www.w3.org/2000/svg"><path fill-rule="evenodd" clip-rule="evenodd" d="M8.32.63h7.36C22.4.63 24 2.237 24 8.983v7.389c0 6.746-1.6 8.352-8.32 8.352H8.32C1.6 24.724 0 23.118 0 16.372V8.983C0 2.237 1.6.63 8.32.63z" fill="#C4C4C4"/><path fill-rule="evenodd" clip-rule="evenodd" d="M19.654 8.931c.111-.372 0-.646-.529-.646h-1.75c-.445 0-.65.237-.761.497 0 0-.89 2.178-2.151 3.592-.408.41-.593.54-.816.54-.111 0-.272-.13-.272-.502v-3.48c0-.448-.13-.647-.5-.647h-2.75c-.278 0-.445.208-.445.404 0 .424.63.521.695 1.713v2.587c0 .567-.102.67-.325.67-.593 0-2.036-2.188-2.892-4.69-.167-.487-.336-.684-.783-.684h-1.75c-.5 0-.6.237-.6.497 0 .465.593 2.773 2.762 5.826 1.447 2.084 3.484 3.214 5.338 3.214 1.112 0 1.25-.25 1.25-.683v-1.575c0-.502.105-.603.458-.603.26 0 .704.13 1.742 1.136 1.187 1.191 1.383 1.725 2.05 1.725h1.75c.5 0 .75-.25.606-.746-.158-.494-.725-1.21-1.476-2.059-.408-.484-1.02-1.005-1.205-1.265-.26-.335-.186-.484 0-.782 0 0 2.132-3.015 2.354-4.039z" fill="#fff"/></svg>
